X:1
T:James Gibb editions
T:The crown is on the Victor's brow - Barnby
%%score [ ( 1 2 ) ( 3 4 ) ]
L:1/8
Q:1/4=156
M:6/4
K:G
V:1 treble nm="Midi_74"
V:2 treble 
V:3 bass nm="Midi_74"
V:4 bass 
V:1
"^44. 87. 44. 4""^Joseph Barnby\n(1838-96)""^The crown is on the Victor's brow" d2 d2 |: %1
 e6 d2 B2 B2 | c6 B4 || B2 | d4 c2 B4 G2 | (A2 G2) F2 G6 || d4 c2 B4 A2 | (G2 F2) E2 D6 || %8
 d4 d2 e4 d2 | =f4 e2 e4 d2 || (e4 d2 c2 d2 B2) |1,2,3 c2 A4 G2 d2 d2 :|4 c2 A4 !fermata!G6 || %13
 c6 B6 |] %14
V:2
 G2 G2 |: G6 G2 G2 G2 | G6 G4 || D2 | D4 F2 G4 D2 | (E2 D2) D2 D6 || D4 D2 D4 D2 | %7
w: Al- le-|lu- ia, Al- le-|lu- ia.|The|crown is on the|Vi\- * ctor's brow;|Fi- nished is the|
w: |||On|that bright mor- ning|He * a- rose,|Bright with tri- umph|
w: |||Now|Je- sus Christ hath|gone * be- fore,|Heaven is o- pen|
w: |||Lord,|by Thy love we|call * on Thee,|So from death to|
 (D2 ^C2) C2 D6 || D4 G2 G4 G2 | A4 G2 G4 G2 || (G4 F2 E2 D4) |1,2,3 E2 D2- (C2 B,2) G2 G2 :|4 %12
w: bat\- * tle now:|Hence with sad- ness;|Sing with glad- ness|Al\- * * *|le- lu\- * ia. Al- le-|
w: o'er * His foes;|Heaven is ring- ing,|Earth is sing- ing,|||
w: e\- * ver- more:|Hence with sad- ness;|Sing with glad- ness|||
w: set * us free,|That our li- ving|Be thanks- giv- ing,|||
 E2 (D2 C2) B,6 || E6 D6 |] %14
w: le- lu\- * ia.|A- men.|
w: ||
w: ||
w: ||
V:3
 B,2 B,2 |: C6 B,2 D2 D2 | E6 D4 || B,2 | A,4 D2 D4 D2 | (C2 B,2) A,2 B,6 || A,4 F,2 G,4 A,2 | %7
 (B,2 A,2) G,2 F,6 || B,4 B,2 C4 B,2 | C4 C2 C4 B,2 || (C4 A,2 G,2 A,2 G,2) |1,2,3 %11
 G,2 F,4 G,2 B,2 B,2 :|4 G,2 F,4 G,6 || G,6 G,6 |] %14
V:4
 G,2 G,2 |: C,6 G,2 G,2 G,2 | C,6 G,,4 || G,2 | F,4 D,2 G,4 B,,2 | (C,2 D,2) D,2 G,6 || %6
 F,4 D,2 G,4 F,2 | (E,2 A,,2) A,,2 D,6 || G,4 G,2 C,4 G,2 | =F,4 C,2 G,4 G,2 || %10
 (C,4 D,2 E,2 F,2 G,2) |1,2,3 C,2 D,4 G,,2 G,2 G,2 :|4 C,2 D,4 !fermata!G,6 || C,6 G,,6 |] %14

